X: 706
T: Ey Gonce-dehen Âh-ı Seherden 
C: Dede Efendi
O: Turkey
F: http://compmusic.upf.edu/node/140
N: neva--yuruksemai--yuruksemai--ey_gonce_dehen--dede_efendi
N: makam= neva
N: form= yuruksemai
N: usul= yuruksemai = 6/8
M: 6/8
L: 1/16
K: C _2/4B ^3/4f  
Q: 1/4=120
%%MIDI tuningsystem comma53
d8 d4  | d4 e2=f2 e2d2  | d^c=B2 c2d2 c4  | \
w:   |   |   | 
d4 d4 e4  | ^f6z2 f2g2  | ^f2e2 f2g2 f2e2  | 
w:   |   |   | 
^f2g2 f2e2 d4  | ^f2e2 d2e4g2  | ^f2e2 f2g2 f2e2  | \
w:   |   |   | 
d2e2 d4 e4  | ^f4 g4 a2g2  | 
w:   |   | 
^f2a6 g2f2  | e2d4ed e=fe2  | d2d6 z2g3^fe2 f2g6  | \
w:   |   |   | 
z2g4^f4g4a2 g2a2 g2a2  | 
w:   | 
g2^f2 g3f e4  | ^f2g2 f2g2 f2g2  | ^f2e2 f2g2 f2e2  | \
w:   |   |   | 
^f2g2 f2e2 f2g2  | 
w:   | 
^f2e2 d4 f2e2  | d2e4g2 ^f2e2  | ^f2g2 f2e2 a6g2 f2e2 d4  | \
w:   |   |   | 
ede=f e2d2 d8 d3c _1/4B2c2  | 
w:   | 
d6e2 d4  | c4 _1/4B4 c4  | d8 d2c2  | _1/4B2A2 G4 B2c2  | \
w:   |   |   |   | 
d6e2 ^f4  | g2^f2 e2d4e4f8a3gg3ff3ee3dd6 e2d4c4_1/4B4c4d8d2  | 
w:   |   | 
c2_1/4B2 A2G4B2  | c2d6 e2^f4g2 f2e2 d4  | \
w:   |   | 
e4 ^f8  | a3g g3^f f3e  | 
w:   |   | 
e3d d8  | d4 a4 a4  | a2g2 a2g3=ff4f4f2 e2e4e2 d2d2 cde4c8c4c2 _1/4B2BA BcB2  | 
w:   |   |   | 
A2A8d2  | e2^f2 g2a2 g2f2  | e2a8a4a4a6  | \
w:   |   |   | 
z2a8c'4c'2 _1/4b2b2 a2a2  | 
w:   | 
g2^f2 z2f4f4f4f2 g2f2  | e2d4^f2 e2d2  | \
w:   |   | 
e4 g2^f2 e2f2  | g2^f2 e2d2 e2d4e4f4g4a2 g2f2 a6g2 f2e2 d4  | 
w:   |   | 
ede=f e2d2 d6z2 g3^f e2f2  | g6z2 g4  | \
w:   |   | 
^f4 g4 a2g2  | a2g2 a2g2 ^f2g3fe4f2 g2f2  | 
w:   |   | 
g2^f2 g2f2 e2f2  | g2^f2 e2f2 g2f2  | \
w:   |   | 
e2^f2 g2f2 e2d4f2 e2d2 e4  | 
w:   | 
g2^f2 e2f2 g2f2  | e2a6 g2^f2  | e2d4ed e=fe2  | \
w:   |   |   | 
d2d4d4d3c_1/4B2 c2d6  | 
w:   | 
e2d4c4_1/4B4c4d8d2 c2B2 A2G4B2 c2d6  | \
w:   | 
e2^f4g2 f2e2  | d4 e4 ^f8 a3g g3f  | 
w:   |   | 
^f3e e3d d6e2 d4 c4  | _1/4B4 c4 d8 d2c2 B2A2  | \
w:   |   | 
G4 _1/4B2c2 d6e2 ^f4 g2f2  | 
w:   | 
e2d4e4^f8a3gg3ff3ee3dd8d4a4a4a2 g2a2  | \
w:   | 
g3=f f4 f4  | 
w:   | 
=f2e2 e4 e2d2  | d2cd e4 c4  | c4 c4 c2_1/4B2  | \
w:   |   |   | 
_1/4BABc B2A2 A8 d3c B2c2  | 
w:   | 
d8 d4  | d4 e2=f2 e2d2  | d^c=B2 c2d2 c4  | \
w:   |   |   | 
d4 d4 e4  | ^f6z2 f2g2  | ^f2e2 f2g2 f2e2  | 
w:   |   |   | 
^f2g2 f2e2 d4  | ^f2e2 d2e4g2  | ^f2e2 f2g2 f2e2  | \
w:   |   |   | 
d2e2 d4 e4  | ^f4 g4 a2g2  | 
w:   |   | 
^f2a6 g2f2  | e2d4ed e=fe2  | d2d6 z2g3^fe2 f2g6  | \
w:   |   |   | 
z2g4^f4g4a2 g2a2 g2a2  | 
w:   | 
g2^f2 g3f e4  | ^f2g2 f2g2 f2g2  | ^f2e2 f2g2 f2e2  | \
w:   |   |   | 
^f2g2 f2e2 f2g2  | 
w:   | 
^f2e2 d4 f2e2  | d2e4g2 ^f2e2  | ^f2g2 f2e2 a6g2 f2e2 d4  | \
w:   |   |   | 
ede=f e2d2 d4  | 
w:   | 
d4 d3c _1/4B2c2  | d6e2 d4  | c4 _1/4B4 c4  | \
w:   |   |   | 
d8 d2c2  | _1/4B2A2 G4 B2c2  | d6e2 ^f4  | 
w:   |   |   | 
g2^f2 e2d4e4f8a3gg3ff3ee3dd6 e2d4c4_1/4B4c4d8d2  | 
w:   | 
c2_1/4B2 A2G4B2  | c2d6 e2^f4g2 f2e2 d4  | \
w:   |   | 
e4 ^f8  | a3g g3^f f3e  | 
w:   |   | 
e3d d8  | d4 a4 a4  | a2g2 a2g3=ff4f4f2 e2e4e2 d2d2 cde4c4c4c4c2 _1/4B2BA BcB2  | 
w:   |   |   | 
A2A12z4z4z4|
w:   | 


